X: 2
T: The Old Gray Goose
R: jig
M: 6/8
L: 1/8
K: Emin
|: B | efe fdB | def g2 a | fdd add | fag fed | gfg efe | dfe ggg | edB BAF | GDD D2 :|


Tune 241	Setting 26730

